X:840
T: Knocknaboul
T: Cnoc na bPoll
S: B.Breathnach: "Ceol Rince na hEireann" II/253
Z: B.Black
L: 1/8
M: 4/4
R: reel
K: Edor
dB B2 dB B2|dBBA g2 (3gfe|dB B2 dB B2|AFDF E2 FG|
dB B2 dB B2|dBBA g2 fe|dB B2 dB B2|AFDF E2-E2 ||
g2 ge faag|edBc d2 ef|g2 fg edBd|faag ed d2|
g2 ge faag|edBc d2 ef|g2 ed BAFG|AFDF FE E2 ||

